X: 83
T: Pollonesse #83
M: 3/4
L: 1/16
K: D
Q:120
d2fd e2ge f4|d2A2 F2AF D4|d2fd e2ge f2g2|agfe d4 D4:|
f2d2 D2d2 f4| g2e2 A2g2 g4|g2e2 g2g2 g4|d2fd e2ge f2g2|agfe d4 D4:|

